X:730
T:Put Me In the Big Chest
S:Sessions, Laurie's Bar, Glasgow 18/10/04
Z:Nigel Gatherer
L:1/8
M:4/4
K:A
EFAB c2 cf | ecBA  F2 AF | EFAB cBcf | ecBc A3 z :|
efec eAAc  | efec  BABc  | efec efaf | ecBc A3 a :|
EFAB c2 cB | c2 cB ce e2 | EFAB cBcf | ecBc A3 z :|
efec eA A2 | efec BABc  | efec efaf | ecBc A3 a  :|
